assets/medical-grey/MedicalGrey5.svg

<svg xmlns="http://www.w3.org/2000/svg" id="icons" viewBox="0 0 64 64"><defs><style>.cls-1{fill:none;stroke:#000;stroke-linecap:round;stroke-linejoin:round;stroke-width:2px}</style></defs><g id="church"><g id="church-2" data-name="church"><path d="M31.99 17.16v7.36M27.54 20.93h8.91M9.42 24.52h12.2v31.87H5.4V28.54a4 4 0 014.02-4.02zM42.27 24.52h12.31a4 4 0 014 4v27.87H42.27V24.52zM21.63 24.52v-8.61a4.07 4.07 0 011.79-3.37l6.29-4.24a4.08 4.08 0 014.56 0l6.22 4.23a4.07 4.07 0 011.78 3.36v40.5H21.63zM9.87 31.57h7.79M9.87 38.28h7.79M46.54 31.57h7.79M46.54 38.28h7.79" class="cls-1"/><path d="M27.54 56.39V38.28h8.91v18.11" class="cls-1"/></g><path d="M5.4 56.39H2.32M61.68 56.39H58.6" class="cls-1"/></g></svg>

<svg xmlns="http://www.w3.org/2000/svg" id="icons" viewBox="0 0 64 64"><defs><style>.cls-1{fill:none;stroke:#000;stroke-linecap:round;stroke-linejoin:round;stroke-width:2px;}</style></defs><g id="church"><g id="church-2" data-name="church"><path d="M31.99 17.16 31.99 24.52" class="cls-1"/><path d="M27.54 20.93 36.45 20.93" class="cls-1"/><path d="M9.42 24.52h12.2v31.87h0H5.4h0V28.54a4 4 0 0 1 4.02-4.02zM42.27 24.52h12.31a4 4 0 0 1 4 4v27.87h0-16.31 0V24.52h0zM21.63 24.52v-8.61a4.07 4.07 0 0 1 1.79-3.37l6.29-4.24a4.08 4.08 0 0 1 4.56 0l6.22 4.23a4.07 4.07 0 0 1 1.78 3.36v40.5H21.63z" class="cls-1"/><path d="M9.87 31.57 17.66 31.57" class="cls-1"/><path d="M9.87 38.28 17.66 38.28" class="cls-1"/><path d="M46.54 31.57 54.33 31.57" class="cls-1"/><path d="M46.54 38.28 54.33 38.28" class="cls-1"/><path d="M27.54 56.39 27.54 38.28 36.45 38.28 36.45 56.39" class="cls-1"/></g><path d="M5.4 56.39 2.32 56.39" class="cls-1"/><path d="M61.68 56.39 58.6 56.39" class="cls-1"/></g></svg>
